packages/core/src/svgs/networks/branded/okex.svg

<svg width="24" height="24" viewBox="0 0 24 24" fill="none" xmlns="http://www.w3.org/2000/svg">
<path d="M2 2H8.66668V8.66668H2V2ZM15.3333 8.66668H8.66668V15.3333H2V22H8.66668V15.3333H15.3333V22H22V15.3333H15.3333V8.66668ZM15.3333 8.66668V2H22V8.66668H15.3333Z" fill="black"/>
</svg>

<svg xmlns="http://www.w3.org/2000/svg" width="24" height="24" fill="none" viewBox="0 0 24 24">
    <path fill="#000" d="M2 2h6.667v6.667H2zm13.333 6.667H8.667v6.666H2V22h6.667v-6.667h6.666V22H22v-6.667h-6.667zm0 0V2H22v6.667z"/>
</svg>
